build/images/content/features/icon_4.svg

<svg width="30" height="30" viewBox="0 0 30 30" fill="none" xmlns="http://www.w3.org/2000/svg">
<path d="M15.6281 27.2144V27.0644H15.4781H13.8464C11.6449 27.0644 9.8588 25.2796 9.8588 23.0768C9.8588 20.8744 11.6448 19.0892 13.8464 19.0892H20.7695C23.0277 19.0892 24.8587 17.2582 24.8587 15V14.4739H25.3848C27.0064 14.4739 28.3202 13.1601 28.3202 11.5385V10.3847C28.3202 7.90857 27.7544 5.69312 26.8666 4.11517C25.9693 2.52026 24.8124 1.67993 23.654 1.67993C22.1924 1.67993 20.7294 3.03699 19.8199 5.47106L19.3271 6.78997L18.8343 5.47106C17.9248 3.03699 16.4617 1.67993 15.0002 1.67993C13.5385 1.67993 12.0752 3.03704 11.1661 5.47099L10.6732 6.79046L10.1804 5.47099C9.2713 3.03704 7.80791 1.67993 6.3463 1.67993C5.18786 1.67993 4.03102 2.52026 3.13371 4.11517C2.24594 5.69312 1.68008 7.90857 1.68008 10.3847V11.5385C1.68008 13.1601 2.99393 14.4739 4.61553 14.4739H5.14162V15C5.14162 16.5651 3.87281 17.8339 2.30773 17.8339H1.83008H1.68008V17.9839V18.9392V19.0892H1.83008H2.30773C4.56591 19.0892 6.39691 17.2582 6.39691 15V14.4739H8.07707C8.95377 14.4739 9.73486 14.0807 10.2772 13.4605L10.6732 13.0077L11.0692 13.4605C11.6116 14.0807 12.3927 14.4739 13.2694 14.4739H16.7309C17.6079 14.4739 18.3887 14.0807 18.9311 13.4605L19.3271 13.0077L19.7231 13.4605C20.2655 14.0807 21.0462 14.4739 21.9232 14.4739H23.603V15C23.603 16.565 22.3347 17.8339 20.7695 17.8339H13.8464C10.9512 17.8339 8.60316 20.1811 8.60316 23.0768C8.60316 25.9729 10.9513 28.3201 13.8464 28.3201H15.4781H15.6281V28.1701V27.2144ZM9.64334 8.59664L9.04721 8.62358C6.87305 8.72185 5.14162 10.5001 5.14162 12.6922V13.2183H4.61553C3.6891 13.2183 2.93572 12.4649 2.93572 11.5385V10.3847C2.93572 8.16332 3.41843 6.35131 4.05181 5.07832C4.36766 4.4435 4.72793 3.92894 5.0974 3.56476C5.44901 3.2182 5.88378 2.93557 6.3463 2.93557C6.72683 2.93557 7.08197 3.12871 7.37543 3.37198C7.67921 3.6238 7.9756 3.97708 8.24827 4.40732C8.79493 5.26988 9.28098 6.49647 9.54188 8.00859L9.64334 8.59664ZM9.63822 12.159C9.39078 12.7794 8.78405 13.2183 8.07707 13.2183H6.39726V12.6922C6.39726 11.1271 7.66607 9.8583 9.23115 9.8583H9.76674C9.76928 9.9013 9.77214 9.95315 9.77502 10.0122C9.78383 10.1928 9.79278 10.4404 9.7934 10.7085C9.79402 10.977 9.78627 11.264 9.76209 11.5241C9.73761 11.7874 9.6973 12.0108 9.63822 12.159ZM21.3027 13.0997C20.6819 12.8523 20.2434 12.2454 20.2434 11.5385V9.85865H20.7695C22.3346 9.85865 23.603 11.1275 23.603 12.6918V13.2281C23.5601 13.2307 23.5082 13.2335 23.4492 13.2364C23.2687 13.2452 23.0212 13.2542 22.7532 13.2548C22.4848 13.2555 22.1978 13.2477 21.9377 13.2236C21.6744 13.1991 21.4509 13.1588 21.3027 13.0997ZM25.3848 13.2183H24.8587V12.6915C24.8587 10.5002 23.1263 8.7215 20.9531 8.62323L20.3568 8.59627L20.4584 8.00811C20.7197 6.49631 21.2054 5.26986 21.7519 4.40736C22.0244 3.97714 22.3207 3.62383 22.6245 3.37198C22.9181 3.12861 23.2733 2.93557 23.654 2.93557C24.1166 2.93557 24.5515 3.21812 24.9032 3.56474C25.2727 3.92893 25.633 4.44352 25.9488 5.07834C26.5821 6.35135 27.0646 8.16336 27.0646 10.3847V11.5385C27.0646 12.4647 26.3121 13.2183 25.3848 13.2183ZM18.4107 11.5385C18.4107 12.4647 17.6582 13.2183 16.7309 13.2183H13.2694C12.343 13.2183 11.5896 12.4649 11.5896 11.5385V10.3847C11.5896 8.16331 12.0724 6.35129 12.7058 5.0783C13.0217 4.44349 13.3819 3.92894 13.7514 3.56477C14.1029 3.21824 14.5377 2.93557 15.0002 2.93557C15.4627 2.93557 15.8974 3.2182 16.2491 3.56476C16.6185 3.92894 16.9788 4.4435 17.2946 5.07832C17.928 6.35131 18.4107 8.16332 18.4107 10.3847V11.5385Z" fill="#4283D0" stroke="#4283D0" stroke-width="0.3"/>
</svg>

<svg width="30" height="30" fill="none" xmlns="http://www.w3.org/2000/svg"><path d="M15.628 27.214v-.15h-1.782a3.988 3.988 0 010-7.975h6.924A4.09 4.09 0 0024.858 15v-.526h.526a2.935 2.935 0 002.935-2.935v-1.154c0-2.476-.566-4.692-1.453-6.27-.898-1.595-2.055-2.435-3.213-2.435-1.462 0-2.925 1.357-3.834 3.791l-.493 1.319-.493-1.319C17.924 3.037 16.462 1.68 15 1.68c-1.461 0-2.925 1.357-3.834 3.791l-.493 1.32-.493-1.32C9.271 3.037 7.808 1.68 6.346 1.68c-1.158 0-2.315.84-3.212 2.435-.888 1.578-1.454 3.794-1.454 6.27v1.154a2.935 2.935 0 002.936 2.935h.526V15a2.834 2.834 0 01-2.834 2.834H1.68v1.255h.628A4.09 4.09 0 006.397 15v-.526h1.68a2.91 2.91 0 002.2-1.014l.396-.452.396.453a2.913 2.913 0 002.2 1.013h3.462a2.91 2.91 0 002.2-1.014l.396-.452.396.453a2.912 2.912 0 002.2 1.013h1.68V15a2.834 2.834 0 01-2.834 2.834h-6.923a5.243 5.243 0 000 10.486h1.782v-1.106zM9.643 8.597l-.596.027a4.078 4.078 0 00-3.905 4.068v.526h-.526c-.927 0-1.68-.753-1.68-1.68v-1.153c0-2.222.482-4.034 1.116-5.307.316-.635.676-1.15 1.045-1.513.352-.347.787-.63 1.25-.63.38 0 .735.194 1.028.437.304.252.6.605.873 1.035.547.863 1.033 2.09 1.294 3.602l.101.588zm-.005 3.562a1.682 1.682 0 01-1.56 1.06h-1.68v-.527A2.834 2.834 0 019.23 9.858h.536a15.054 15.054 0 01.026.85c.001.269-.007.556-.03.816a2.464 2.464 0 01-.125.635zm11.665.94a1.682 1.682 0 01-1.06-1.56v-1.68h.527a2.833 2.833 0 012.833 2.833v.536a13.836 13.836 0 01-.85.027 8.85 8.85 0 01-.815-.031 2.464 2.464 0 01-.635-.124zm4.082.12h-.526v-.527c0-2.192-1.733-3.97-3.906-4.069l-.596-.027.101-.588c.262-1.512.747-2.738 1.294-3.6.272-.43.569-.784.873-1.036.293-.243.648-.436 1.029-.436.463 0 .898.282 1.25.629.369.364.729.879 1.045 1.513.633 1.273 1.116 3.085 1.116 5.307v1.154c0 .926-.753 1.68-1.68 1.68zm-6.974-1.68c0 .926-.753 1.68-1.68 1.68h-3.462c-.926 0-1.68-.754-1.68-1.68v-1.154c0-2.222.483-4.034 1.117-5.307.316-.635.676-1.15 1.045-1.513.352-.347.787-.63 1.25-.63.462 0 .896.283 1.248.63.37.364.73.879 1.046 1.513.633 1.273 1.116 3.085 1.116 5.307v1.154z" fill="#4283D0" stroke="#4283D0" stroke-width=".3"/></svg>
